X:1
T:The Bottom of the Punch Bowl
T:The Bottom of the Punch Bowl
T:McGibbon 1763
C:McGibbon 1763
L:1/8
M:2/2
K:D
V:1 treble 
V:1
|: F/E/ |"D" D2 D2 d3 e | d2 D2 FGAF |"Em" E2 E2 efgf |"A" e2 E2 FGAF |"D" D2 D2 d3 e | %6
"Bm" fedB d3 A |"G" [DG]3 F"A" [CA]3 E |"D" F2 D2 D2 :: de |"D" fedB ABde | fedB"G" d3 e | %12
"D" A3 B ABde |"A" f2 e2 e2 de |"D" fedB ABde | fedB"Bm" d3 A |"G" [DB]dBF"A" [CA]BAE | %17
"D" F2"G" D2"D" D2 :| %18

